components/Common/Svg/svgs/sales.svg

<svg
  width="90"
  height="90"
  viewBox="0 0 90 90"
  fill="none"
  xmlns="http://www.w3.org/2000/svg"
>
  <circle
    opacity="0.5"
    cx="45"
    cy="45"
    r="45"
    fill="#FFE603"
  ></circle>
  <path
    d="M50.5538 36.8333C57.1506 36.8333 62.4983 33.6247 62.4983 29.6667C62.4983 25.7086 57.1506 22.5 50.5538 22.5C43.9571 22.5 38.6094 25.7086 38.6094 29.6667C38.6094 33.6247 43.9571 36.8333 50.5538 36.8333Z"
    stroke="#171717"
    stroke-width="3.5"
    stroke-linecap="round"
    stroke-linejoin="round"
  ></path>
  <path
    d="M38.6094 29.6667V39.2223C38.6094 43.1807 43.9581 46.389 50.5538 46.389C57.1495 46.389 62.4983 43.1807 62.4983 39.2223V29.6667"
    stroke="#171717"
    stroke-width="3.5"
    stroke-linecap="round"
    stroke-linejoin="round"
  ></path>
  <path
    d="M38.6094 39.2222V48.7777C38.6094 52.7361 43.9581 55.9444 50.5538 55.9444C57.1495 55.9444 62.4983 52.7361 62.4983 48.7777V39.2222"
    stroke="#171717"
    stroke-width="3.5"
    stroke-linecap="round"
    stroke-linejoin="round"
  ></path>
  <path
    d="M38.6094 48.7778V58.3334C38.6094 62.2918 43.9581 65.5001 50.5538 65.5001C57.1495 65.5001 62.4983 62.2918 62.4983 58.3334V48.7778"
    stroke="#171717"
    stroke-width="3.5"
    stroke-linecap="round"
    stroke-linejoin="round"
  ></path>
  <path
    d="M29.0556 36.8333H23.0833C22.133 36.8333 21.2215 37.2108 20.5495 37.8828C19.8775 38.5548 19.5 39.4662 19.5 40.4166C19.5 41.3669 19.8775 42.2784 20.5495 42.9504C21.2215 43.6224 22.133 43.9999 23.0833 43.9999H25.4722C26.4226 43.9999 27.334 44.3774 28.006 45.0495C28.678 45.7215 29.0556 46.6329 29.0556 47.5833C29.0556 48.5336 28.678 49.445 28.006 50.1171C27.334 50.7891 26.4226 51.1666 25.4722 51.1666H19.5"
    stroke="#171717"
    stroke-width="3.5"
    stroke-linecap="round"
    stroke-linejoin="round"
  ></path>
  <path
    d="M24.2773 34.4443V36.8332M24.2773 51.1666V53.5555V51.1666Z"
    stroke="#171717"
    stroke-width="3.5"
    stroke-linecap="round"
    stroke-linejoin="round"
  ></path>
</svg>

<svg width="90" height="90" viewBox="0 0 90 90" fill="none" xmlns="http://www.w3.org/2000/svg"><circle opacity=".5" cx="45" cy="45" r="45" fill="#FFE603"/><path d="M50.554 36.833c6.597 0 11.944-3.208 11.944-7.166S57.151 22.5 50.554 22.5s-11.945 3.209-11.945 7.167c0 3.958 5.348 7.166 11.945 7.166Z" stroke="#171717" stroke-width="3.5" stroke-linecap="round" stroke-linejoin="round"/><path d="M38.61 29.667v9.555c0 3.959 5.348 7.167 11.944 7.167 6.596 0 11.944-3.208 11.944-7.167v-9.555" stroke="#171717" stroke-width="3.5" stroke-linecap="round" stroke-linejoin="round"/><path d="M38.61 39.222v9.556c0 3.958 5.348 7.166 11.944 7.166 6.596 0 11.944-3.208 11.944-7.166v-9.556" stroke="#171717" stroke-width="3.5" stroke-linecap="round" stroke-linejoin="round"/><path d="M38.61 48.778v9.555c0 3.959 5.348 7.167 11.944 7.167 6.596 0 11.944-3.208 11.944-7.167v-9.555M29.056 36.833h-5.973a3.583 3.583 0 0 0 0 7.167h2.39a3.583 3.583 0 1 1 0 7.167H19.5M24.277 34.444v2.39m0 14.333v2.389-2.39Z" stroke="#171717" stroke-width="3.5" stroke-linecap="round" stroke-linejoin="round"/></svg>
